X: 838
T: Alborada 'l Tigre Xuan
R: reel
M: 4/4
K: Dmajor
a|:f2fd f2fa|fdfa fgfe|d2df d2dc|BABc d2df|
d2dB dcBc|BABd cdec|d2df d2dc|1 BABc d2da:|2 BABc d2Bd||
e2ce A4|ABcd efge|f2df d2df|dfdf d2fd|
e2ce A4|ABcd efge|f2df d2df|d2df gfed|
e2Ac efge|f2Ad gfed|efdc BABc|d2dc BABd|
B2>d2 c2>e2|d2>c2 BABd|B2>d2 cdec|d4d2>||

